X:1
T:New French Schottische
R:Schottische
M:2/4
L:1/8
K:Gm
GB/d/ GB/d/|ed/c/ d2|e/f/g/f/ ed/c/|Bc A2| \
GB/d/ GB/d/|ed/c/ d2|e/f/g/f/ e/d/c/B/|A/G/B/A/ G2:|
ga/b/ ag|f/g/f/g/ d2|e/f/g/f/ ed/c/|Bc d2| \
ga/b/ ag|f/g/f/e/ d2|e/f/g/f/ e/d/c/B/|A/G/B/A/ G2:|
<end>
<start>
